X:1
T:G Major Ezra Goff, 1805
T:Isaac Watts, 1717 (Psalm 17)                      88. 88. (L. M.)
T:Sardis
T:Transcribed from  The Village Compilation, 1806.
%%score [ 1 2 3 4 ]
L:1/8
Q:1/4=120
M:4/4
K:G
V:1 treble nm="Tr." snm="Tr."
V:2 treble nm="C." snm="C."
V:3 treble-8 nm="T." snm="T."
V:4 bass nm="B." snm="B."
V:1
 G8 | (B3 c d2) c2 | B6 A2 | G4 A4 | B8 | z4 d4 | B2 B2 B2 d2 | (e3 d e2) d2 | d8 | d4 c2 A2 | %10
w: ||||||||||
w: ||||||||||
w: ||||||||||
 (B3 c d2) B2 | (c2 e2) d4 | [Bd]8- | [Bd]4 z4 |: z8 | z8 | d4 d2 d2 | !wedge!B6 Bc | d2 d2 d2 B2 | %19
w: ||||||When shall I|wake, When *|shall I wake and|
w: ||||||They are the|sword, Theyt *|are the sword, the|
w: ||||||And stand com-|plete, And *|stand com- plete in|
 e4 d4 | d8 | z4 A4 | B2 G2 d2 d2 | (B2 e2 d2) d2 | B8 :| %25
w: find me|there?|When|shall I wake and|find~ _ _ me|there?|
w: hand is|thine,|They|are the sword, the|hand~ _ _ is|thine.|
w: right- eous-|ness.|And|stand com- plete in|right- * * eous-|ness.|
V:2
 D8 | D6 D2 | G6 E2 | D4 D4 | D8 | z4 D4 | G2 F2 F2 G2 | E6 G2 | F8 | G4 E2 E2 | F6 FG | G4 F4 | %12
w: 1.~This|life's a|dream, an|emp- ty|show;|But|the bright world to|which I|go|Hath joys sub-|stan- tial *|and sin-|
w: 2.~Lord,|I am|thine, but|thou wilt|prove|My|faith, my pa- tience,|and my|love:|When men of|spite a- *|gainst me|
w: 3.~What|sin- ners|va- lue|I re-|sign;|Lord,|'tis e- nough that|thou art|mine:|I shall be-|hold thy *|bliss- ful|
 G8- | G4 z4 |: D4 D2 D2 | !wedge!E6 z2 | F4 F2 F2 | !wedge!G6 F2 | G2 G2 F2 F2 | E4 G4 | F8 | %21
w: cere;~|_|When shall I|wake,||||||
w: join,~|_|They are the|sword.||||||
w: face,~|_|And stand com-|plete,||||||
 z4 D4 | D2 DE F2 D2 | (G4 F2) F2 | G8 :| %25
w: ||||
w: ||||
w: ||||
V:3
 G8 | (d3 c B2) A2 | (G4 D2) c2 | B4 A4 | G8 | z4 B4 | d2 d2 d2 B2 | (c3 d c2) B2 | A8 | B4 c2 e2 | %10
w: ||||||||||
w: ||||||||||
w: ||||||||||
 (d3 c B2) A2 | G4 A4 | B8- | B4 z4 |: z8 | B4 B2 B2 | A6 z2 | d4 B2 c2 | (d3 edB) G2 | c4 B4 | %20
w: |||||When shall I|wake,|When shall I|wake,~~ _ _ _ and|find me|
w: |||||They are the|sword,|They are the|sword,~ _ _ _ the|hand is|
w: |||||And stand com-|plete,|And stand com-|plete~ _ _ _ in|right- eous-|
 A8 | z4 d4 | G2 B2 d2 g2 | (d2 ec B2) A2 | G8 :| %25
w: there?|When|shall I wake and|find~ _ _ _ me|there?|
w: thine.|They|are the sword, the|hand~ _ _ _ is|thine.|
w: ness.|And|stand com- plete in|right- * * * eous-|ness.|
V:4
 G,8 | G,6 D,2 | G,,6 C,2 | D,4 D,4 | G,,8 | z4 G,4 | G,2 B,2 B,2 G,2 | (C,3 B,, A,,2) G,,2 | D,8 | %9
w: |||||||||
w: |||||||||
w: |||||||||
 G,4 A,2 C2 | (B,3 A, G,2) D,2 | (E,2 C,2) D,4 | G,8- | G,4 z4 |: G,4 G,2 G,2 | E,6 z2 | %16
w: |||||When shall I|wake,|
w: |||||They are the|sword,|
w: |||||And stand com-|plete,|
 D,4 D,2 D,2 | G,6 D,2 | %18
w: When shall I|wake, When|
w: They are the|sword, They|
w: And stand com-|plete, And|
"^___________________________________________\nEdited by B. C. Johnston, 2016\nMeasure 12, Counter: A-F changed to G-F." G,,2 G,,2 D,2 D,2 | %19
w: shall I wake and|
w: are the sword, the|
w: stand com- plete in|
 C,4 G,4 | D,8- | D,4 D,4 | G,2 G,>A, B,2 B,>A, | (G,2 C,2 D,2) D,2 | G,,8 :| %25
w: find me|there?~|_ _||||
w: hand is|thine.~|_ _||||
w: right- eous-|ness.~|_ _||||

